X: 127
M:C|
L:1/8
K:Bb
v(D>.F)ud2 (D>.F)d2 | "^SEGUE"D>F d>c B>GF2 | D>Fd2 D>Fd2 |\
 c>d c>=B c>Af2 |
K:F
|:v((3cdc) u(=B>.c) (d>.c)(B>.c) | "^SEGUE"f>cA>d c>A F2 |\
 G>^FG>A B>GE>G | F>EF>G "4"A>FC2 |
((3cdc) =B>c d>c B>c | f>cA>d c>AF2 |\


